src/lib/packages/icons/src/assets/filled/grid-2.svg

<svg xmlns="http://www.w3.org/2000/svg" width="24" height="24" fill="none"><path fill="currentColor" d="M7 4.5v1C7 6.5 6.5 7 5.5 7h-1C3.5 7 3 6.5 3 5.5v-1C3 3.5 3.5 3 4.5 3h1c1 0 1.5.5 1.5 1.5ZM12.5 3h-1c-1 0-1.5.5-1.5 1.5v1c0 1 .5 1.5 1.5 1.5h1c1 0 1.5-.5 1.5-1.5v-1c0-1-.5-1.5-1.5-1.5Zm7 0h-1c-1 0-1.5.5-1.5 1.5v1c0 1 .5 1.5 1.5 1.5h1c1 0 1.5-.5 1.5-1.5v-1c0-1-.5-1.5-1.5-1.5Zm-14 7h-1c-1 0-1.5.5-1.5 1.5v1c0 1 .5 1.5 1.5 1.5h1c1 0 1.5-.5 1.5-1.5v-1c0-1-.5-1.5-1.5-1.5Zm7 0h-1c-1 0-1.5.5-1.5 1.5v1c0 1 .5 1.5 1.5 1.5h1c1 0 1.5-.5 1.5-1.5v-1c0-1-.5-1.5-1.5-1.5Zm7 0h-1c-1 0-1.5.5-1.5 1.5v1c0 1 .5 1.5 1.5 1.5h1c1 0 1.5-.5 1.5-1.5v-1c0-1-.5-1.5-1.5-1.5Zm-14 7h-1c-1 0-1.5.5-1.5 1.5v1c0 1 .5 1.5 1.5 1.5h1c1 0 1.5-.5 1.5-1.5v-1c0-1-.5-1.5-1.5-1.5Zm7 0h-1c-1 0-1.5.5-1.5 1.5v1c0 1 .5 1.5 1.5 1.5h1c1 0 1.5-.5 1.5-1.5v-1c0-1-.5-1.5-1.5-1.5Zm7 0h-1c-1 0-1.5.5-1.5 1.5v1c0 1 .5 1.5 1.5 1.5h1c1 0 1.5-.5 1.5-1.5v-1c0-1-.5-1.5-1.5-1.5Z"/></svg>

<svg width="24" height="24" viewBox="0 0 24 24" fill="none" xmlns="http://www.w3.org/2000/svg">
<path d="M7 4.5V5.5C7 6.5 6.5 7 5.5 7H4.5C3.5 7 3 6.5 3 5.5V4.5C3 3.5 3.5 3 4.5 3H5.5C6.5 3 7 3.5 7 4.5ZM12.5 3H11.5C10.5 3 10 3.5 10 4.5V5.5C10 6.5 10.5 7 11.5 7H12.5C13.5 7 14 6.5 14 5.5V4.5C14 3.5 13.5 3 12.5 3ZM19.5 3H18.5C17.5 3 17 3.5 17 4.5V5.5C17 6.5 17.5 7 18.5 7H19.5C20.5 7 21 6.5 21 5.5V4.5C21 3.5 20.5 3 19.5 3ZM5.5 10H4.5C3.5 10 3 10.5 3 11.5V12.5C3 13.5 3.5 14 4.5 14H5.5C6.5 14 7 13.5 7 12.5V11.5C7 10.5 6.5 10 5.5 10ZM12.5 10H11.5C10.5 10 10 10.5 10 11.5V12.5C10 13.5 10.5 14 11.5 14H12.5C13.5 14 14 13.5 14 12.5V11.5C14 10.5 13.5 10 12.5 10ZM19.5 10H18.5C17.5 10 17 10.5 17 11.5V12.5C17 13.5 17.5 14 18.5 14H19.5C20.5 14 21 13.5 21 12.5V11.5C21 10.5 20.5 10 19.5 10ZM5.5 17H4.5C3.5 17 3 17.5 3 18.5V19.5C3 20.5 3.5 21 4.5 21H5.5C6.5 21 7 20.5 7 19.5V18.5C7 17.5 6.5 17 5.5 17ZM12.5 17H11.5C10.5 17 10 17.5 10 18.5V19.5C10 20.5 10.5 21 11.5 21H12.5C13.5 21 14 20.5 14 19.5V18.5C14 17.5 13.5 17 12.5 17ZM19.5 17H18.5C17.5 17 17 17.5 17 18.5V19.5C17 20.5 17.5 21 18.5 21H19.5C20.5 21 21 20.5 21 19.5V18.5C21 17.5 20.5 17 19.5 17Z" fill="currentColor"/>
</svg>
